src/images/svg/problems__fire2.svg

<svg width="407" height="472" viewBox="0 0 407 472" fill="none" xmlns="http://www.w3.org/2000/svg">
<path d="M451.016 321.411C444.969 309.108 436.628 296.993 424.429 282.999C393.672 247.874 384.289 169.547 384.184 168.796C383.767 165.039 380.848 161.94 376.99 160.813C373.028 159.686 368.754 160.719 365.939 163.536C329.239 200.821 344.669 258.393 353.01 281.402C355.304 287.695 357.806 295.114 359.578 302.628C373.132 363.392 346.962 390.91 340.811 396.451C334.868 397.954 330.801 397.202 327.048 393.54C314.12 380.673 309.845 338.504 315.892 283.562C317.144 272.386 316.83 262.337 315.058 252.945C302.305 185.416 255.543 142.1 243.639 126.908C210.901 82.9552 207.564 9.79367 207.46 9.13624C207.356 5.66131 205.166 2.56204 201.726 1.05936C198.389 -0.443314 194.323 -0.255479 191.195 1.71678C136.562 35.4331 141.254 116.671 148.865 162.034C150.637 172.552 154.078 183.259 160.021 196.783C181.186 245.15 155.851 307.605 155.642 308.169C155.434 308.732 155.225 309.202 155.121 309.765C151.889 325.168 146.467 334.372 140.42 334.372C139.794 334.372 139.169 334.278 138.439 334.09C131.036 332.681 127.179 325.543 127.074 319.345C126.657 239.233 38.1393 212.279 37.2009 211.997C33.239 210.87 28.86 211.904 26.1492 214.815C23.3341 217.726 22.8128 221.765 24.6895 225.146C25.7321 227.118 29.0685 235.759 26.7747 266.282C24.7938 293.705 19.2679 320.848 10.4057 346.863C-10.6552 409.224 -7.31879 468.298 -7.11027 471.115C9.08468 631.063 262.342 659.09 412.647 568.977C429.12 559.116 442.57 547.846 452.475 535.448C507.943 465.95 475.309 371.563 451.016 321.411ZM65.7696 474.214C66.0824 479.38 61.7034 483.794 55.969 484.076H55.3435C49.8176 484.076 45.2301 480.225 44.9173 475.248C43.9789 461.536 44.1875 447.166 45.3343 431.576C45.7514 426.411 50.756 422.56 56.4903 422.841C62.2247 423.216 66.6037 427.724 66.1867 432.89C65.0387 447.73 64.8313 461.254 65.7696 474.214ZM70.8774 391.004C70.2518 395.794 65.7686 399.268 60.5555 399.268C60.1385 399.268 59.7214 399.268 59.2001 399.175C53.57 398.517 49.5038 393.915 50.1293 388.75L55.1339 352.498C55.8637 347.426 60.9725 343.763 66.8112 344.327C72.5456 344.984 76.6118 349.68 75.8819 354.846L70.8774 391.004Z" fill="#3D3D3D"/>
<path d="M374.113 128.726C368.749 127.931 365.071 123.135 365.898 118.003C366.512 114.18 370.065 94.6093 379.707 84.7683C383.419 80.9737 389.633 80.7761 393.609 84.3412C397.57 87.8922 397.771 93.8472 394.055 97.6419C389.974 101.809 386.497 113.735 385.335 120.871C384.505 125.948 379.556 129.511 374.113 128.726Z" fill="#3D3D3D"/>
<path d="M15.6045 175.594C13.7223 168.597 9.04528 157.056 4.55606 153.289C0.470038 149.861 0.0619259 143.916 3.64346 140.012C7.21615 136.098 13.4243 135.698 17.5202 139.139C28.1173 148.028 33.6538 167.173 34.6579 170.917C36.0022 175.948 32.8337 181.065 27.5804 182.361C22.211 183.653 16.9429 180.541 15.6045 175.594Z" fill="#3D3D3D"/>
</svg>

<svg xmlns="http://www.w3.org/2000/svg" fill="none" viewBox="0 0 407 472"><path fill="#3D3D3D" d="M451.016 321.411c-6.047-12.303-14.388-24.418-26.587-38.412-30.757-35.125-40.14-113.452-40.245-114.203-.417-3.757-3.336-6.856-7.194-7.983-3.962-1.127-8.236-.094-11.051 2.723-36.7 37.285-21.27 94.857-12.929 117.866 2.294 6.293 4.796 13.712 6.568 21.226 13.554 60.764-12.616 88.282-18.767 93.823-5.943 1.503-10.01.751-13.763-2.911-12.928-12.867-17.203-55.036-11.156-109.978 1.252-11.176.938-21.225-.834-30.617-12.753-67.529-59.515-110.845-71.419-126.037C210.901 82.955 207.564 9.794 207.46 9.136c-.104-3.475-2.294-6.574-5.734-8.077-3.337-1.502-7.403-1.314-10.531.658-54.633 33.716-49.941 114.954-42.33 160.317 1.772 10.518 5.213 21.225 11.156 34.749 21.165 48.367-4.17 110.822-4.379 111.386-.208.563-.417 1.033-.521 1.596-3.232 15.403-8.654 24.607-14.701 24.607-.626 0-1.251-.094-1.981-.282-7.403-1.409-11.26-8.547-11.365-14.745-.417-80.112-88.935-107.066-89.873-107.348-3.962-1.127-8.341-.093-11.052 2.818-2.815 2.911-3.336 6.95-1.46 10.331 1.043 1.972 4.38 10.613 2.086 41.136a322.187 322.187 0 0 1-16.37 80.581C-10.654 409.224-7.318 468.298-7.11 471.115 9.085 631.063 262.342 659.09 412.647 568.977c16.473-9.861 29.923-21.131 39.828-33.529 55.468-69.498 22.834-163.885-1.459-214.037zM65.77 474.214c.312 5.166-4.067 9.58-9.801 9.862h-.626c-5.525 0-10.113-3.851-10.426-8.828-.938-13.712-.73-28.082.417-43.672.417-5.165 5.422-9.016 11.156-8.735 5.735.375 10.114 4.883 9.697 10.049-1.148 14.84-1.356 28.364-.417 41.324zm5.107-83.21c-.625 4.79-5.108 8.264-10.321 8.264-.417 0-.835 0-1.356-.093-5.63-.658-9.696-5.26-9.07-10.425l5.004-36.252c.73-5.072 5.838-8.735 11.677-8.171 5.735.657 9.8 5.353 9.07 10.519l-5.004 36.158zM374.113 128.726c-5.364-.795-9.042-5.591-8.215-10.723.614-3.823 4.167-23.394 13.809-33.235 3.712-3.794 9.926-3.992 13.902-.427 3.961 3.551 4.162 9.506.446 13.3-4.081 4.168-7.558 16.094-8.72 23.23-.83 5.077-5.779 8.64-11.222 7.855zM15.604 175.594c-1.882-6.997-6.559-18.538-11.048-22.305-4.086-3.428-4.494-9.373-.913-13.277 3.573-3.914 9.781-4.314 13.877-.873 10.597 8.889 16.134 28.034 17.138 31.778 1.344 5.031-1.824 10.148-7.078 11.444-5.369 1.292-10.637-1.82-11.975-6.767z"/></svg>
